public/assets/img/icons/stop-button.svg

<?xml version="1.0" encoding="utf-8"?>
<!-- Uploaded to: SVG Repo, www.svgrepo.com, Generator: SVG Repo Mixer Tools -->
<svg width="800px" height="800px" viewBox="0 0 24 24" fill="none" xmlns="http://www.w3.org/2000/svg">
<g id="Media / Stop">
<path id="Vector" d="M5 8.2002V15.8002C5 16.9203 5 17.4796 5.21799 17.9074C5.40973 18.2837 5.71547 18.5905 6.0918 18.7822C6.5192 19 7.07899 19 8.19691 19H15.8036C16.9215 19 17.4805 19 17.9079 18.7822C18.2842 18.5905 18.5905 18.2837 18.7822 17.9074C19 17.48 19 16.921 19 15.8031V8.19691C19 7.07899 19 6.5192 18.7822 6.0918C18.5905 5.71547 18.2842 5.40973 17.9079 5.21799C17.4801 5 16.9203 5 15.8002 5H8.2002C7.08009 5 6.51962 5 6.0918 5.21799C5.71547 5.40973 5.40973 5.71547 5.21799 6.0918C5 6.51962 5 7.08009 5 8.2002Z" stroke="#000000" stroke-width="2" stroke-linecap="round" stroke-linejoin="round"/>
</g>
</svg>

<svg xmlns="http://www.w3.org/2000/svg" width="800" height="800" fill="none" viewBox="0 0 24 24"><path stroke="#000" stroke-linecap="round" stroke-linejoin="round" stroke-width="2" d="M5 8.2v7.6c0 1.12 0 1.68.218 2.107.192.377.497.683.874.875.427.218.987.218 2.105.218h7.607c1.118 0 1.676 0 2.104-.218.376-.192.682-.498.874-.875.218-.427.218-.986.218-2.104V8.197c0-1.118 0-1.678-.218-2.105a2 2 0 0 0-.874-.874C17.48 5 16.92 5 15.8 5H8.2c-1.12 0-1.68 0-2.108.218a1.999 1.999 0 0 0-.874.874C5 6.52 5 7.08 5 8.2Z"/></svg>
